X:1
T:Ding Dong Bell
M:2/4
L:1/8
K:B
%
"1." B2 F2 | G2 D2 | E2 F2 | B,4 |
w: Ding dong ding dong ding dong bell.
%
"2." BB (BA) | GG (GF) | GG AA | B4 | 
w: Ding dong bell,_ ding dong bell,_ ding dong ding dong bell.
%
"3." d>d cf | Bc/B/ Ad | GB e/d/c | B4 |]
w: Fa la la la la la la la la la la la la la la.

